X:1
L:1/8
M:4/4
K:C
 BEA Dec |[M:2/2][K:G]SOSOO .!fermata!PMTCO(3(MDEF) |: G2 (BG) dGBG | egfa gedB | G2 (BG) dGBG | 
 AcBA GE{F}ED || G2 (BG) dGBG | egfa gedB | G2 (BG) dGBG | dBAB GE{F}ED || dega (bg){a} (3(gfg) | 
 agbg ageg | dega bage | dBAB GE{F}ED || dega (bg){a} (3(gfg) | agbg ageg | bgaf gage | 
""^^Repeat as required"" dBAB GE{F}ED :|""^^Last shaggin' time"" G6 |]
